assets/images/ywc18/icon/ywc_instagram.svg

<svg width="52" height="52" fill="none" xmlns="http://www.w3.org/2000/svg"><circle cx="26" cy="26" r="25" stroke="#F2F6FC" stroke-opacity=".8" stroke-width="2"/><path d="M20.6489 11.8333c-4.396 0-7.9823 3.5863-7.9823 7.9823V31.351c0 4.3961 3.5863 7.9823 7.9823 7.9823h11.5355c4.396 0 7.9822-3.5862 7.9822-7.9823V19.8156c0-4.396-3.5862-7.9823-7.9822-7.9823H20.6489zm0 2.1154h11.5355c3.2515 0 5.8668 2.6112 5.8668 5.8669V31.351c0 3.2516-2.6111 5.8669-5.8668 5.8669H20.6489c-3.2516 0-5.8669-2.6111-5.8669-5.8669V19.8156c0-3.2516 2.6112-5.8669 5.8669-5.8669zm13.7004 2.1154c-.8759 0-1.5865.7106-1.5865 1.5865s.7106 1.5866 1.5865 1.5866 1.5866-.7107 1.5866-1.5866-.7107-1.5865-1.5866-1.5865zm-7.9327 2.1154c-4.0779 0-7.4038 3.3259-7.4038 7.4038 0 4.0779 3.3259 7.4039 7.4038 7.4039 4.0779 0 7.4039-3.326 7.4039-7.4039s-3.326-7.4038-7.4039-7.4038zm0 2.1154c2.9335 0 5.2885 2.355 5.2885 5.2884 0 2.9335-2.355 5.2885-5.2885 5.2885-2.9334 0-5.2884-2.355-5.2884-5.2885 0-2.9334 2.355-5.2884 5.2884-5.2884z" fill="#F2F6FC" fill-opacity=".8"/><path d="M13.2808 19.8156c0-4.0569 3.3112-7.3681 7.3681-7.3681h11.5355c4.0568 0 7.3681 3.3112 7.3681 7.3681V31.351c0 4.0569-3.3113 7.3682-7.3681 7.3682H20.6489c-4.0569 0-7.3681-3.3113-7.3681-7.3682V19.8156zm18.9036-6.481H20.6489c-3.5952 0-6.481 2.8905-6.481 6.481V31.351c0 3.5952 2.8905 6.4811 6.481 6.4811h11.5355c3.5951 0 6.481-2.8906 6.481-6.4811V19.8156c0-3.5952-2.8906-6.481-6.481-6.481zm1.1925 4.316c0-.5367.4357-.9724.9724-.9724.5367 0 .9724.4357.9724.9724 0 .5367-.4357.9724-.9724.9724-.5367 0-.9724-.4357-.9724-.9724zm-13.75 7.9327c0-3.7387 3.051-6.7897 6.7897-6.7897 3.7387 0 6.7897 3.051 6.7897 6.7897 0 3.7387-3.051 6.7897-6.7897 6.7897-3.7387 0-6.7897-3.051-6.7897-6.7897zm12.6923 0c0-3.2726-2.6299-5.9026-5.9026-5.9026-3.2726 0-5.9026 2.63-5.9026 5.9026 0 3.2726 2.63 5.9026 5.9026 5.9026 3.2727 0 5.9026-2.63 5.9026-5.9026z" stroke="#F2F6FC" stroke-opacity=".8" stroke-width="1.22829"/></svg>

<svg width="52" height="52" viewBox="0 0 52 52" fill="none" xmlns="http://www.w3.org/2000/svg">
<circle cx="26" cy="26" r="25" stroke="#F2F6FC" stroke-opacity="0.8" stroke-width="2"/>
<path d="M20.6489 11.8333C16.2529 11.8333 12.6666 15.4196 12.6666 19.8156V31.351C12.6666 35.7471 16.2529 39.3333 20.6489 39.3333H32.1844C36.5804 39.3333 40.1666 35.7471 40.1666 31.351V19.8156C40.1666 15.4196 36.5804 11.8333 32.1844 11.8333H20.6489ZM20.6489 13.9487H32.1844C35.4359 13.9487 38.0512 16.5599 38.0512 19.8156V31.351C38.0512 34.6026 35.4401 37.2179 32.1844 37.2179H20.6489C17.3973 37.2179 14.782 34.6068 14.782 31.351V19.8156C14.782 16.564 17.3932 13.9487 20.6489 13.9487ZM34.3493 16.0641C33.4734 16.0641 32.7628 16.7747 32.7628 17.6506C32.7628 18.5265 33.4734 19.2372 34.3493 19.2372C35.2252 19.2372 35.9359 18.5265 35.9359 17.6506C35.9359 16.7747 35.2252 16.0641 34.3493 16.0641ZM26.4166 18.1795C22.3387 18.1795 19.0128 21.5054 19.0128 25.5833C19.0128 29.6612 22.3387 32.9872 26.4166 32.9872C30.4945 32.9872 33.8205 29.6612 33.8205 25.5833C33.8205 21.5054 30.4945 18.1795 26.4166 18.1795ZM26.4166 20.2949C29.3501 20.2949 31.7051 22.6499 31.7051 25.5833C31.7051 28.5168 29.3501 30.8718 26.4166 30.8718C23.4832 30.8718 21.1282 28.5168 21.1282 25.5833C21.1282 22.6499 23.4832 20.2949 26.4166 20.2949Z" fill="#F2F6FC" fill-opacity="0.8"/>
<path d="M13.2808 19.8156C13.2808 15.7587 16.592 12.4475 20.6489 12.4475H32.1844C36.2412 12.4475 39.5525 15.7587 39.5525 19.8156V31.351C39.5525 35.4079 36.2412 38.7192 32.1844 38.7192H20.6489C16.592 38.7192 13.2808 35.4079 13.2808 31.351V19.8156ZM32.1844 13.3346H20.6489C17.0537 13.3346 14.1679 16.2251 14.1679 19.8156V31.351C14.1679 34.9462 17.0584 37.8321 20.6489 37.8321H32.1844C35.7795 37.8321 38.6654 34.9415 38.6654 31.351V19.8156C38.6654 16.2204 35.7748 13.3346 32.1844 13.3346ZM33.3769 17.6506C33.3769 17.1139 33.8126 16.6782 34.3493 16.6782C34.886 16.6782 35.3217 17.1139 35.3217 17.6506C35.3217 18.1873 34.886 18.623 34.3493 18.623C33.8126 18.623 33.3769 18.1873 33.3769 17.6506ZM19.6269 25.5833C19.6269 21.8446 22.6779 18.7936 26.4166 18.7936C30.1553 18.7936 33.2063 21.8446 33.2063 25.5833C33.2063 29.322 30.1553 32.373 26.4166 32.373C22.6779 32.373 19.6269 29.322 19.6269 25.5833ZM32.3192 25.5833C32.3192 22.3107 29.6893 19.6807 26.4166 19.6807C23.144 19.6807 20.514 22.3107 20.514 25.5833C20.514 28.8559 23.144 31.4859 26.4166 31.4859C29.6893 31.4859 32.3192 28.8559 32.3192 25.5833Z" stroke="#F2F6FC" stroke-opacity="0.8" stroke-width="1.22829"/>
</svg>
